X:1
T:James Gibb editions
T:Imitazione di veneziano - Vecchi
T:#
%%score [ 1 2 3 ]
L:1/8
Q:1/4=130
M:2/2
K:F
V:1 treble nm="Soprano" snm="S"
V:2 treble nm="Alto I" snm="A I"
V:3 treble nm="Alto II" snm="A II"
V:1
"^Orazio Vecchi\n(1550-1605)""^Imitazione del veneziano" z4 z2 A2 | c8 | c4 z2 d2 | c6 c2 | %4
w: Pro-|ver-|bio, Pro-|ver- bio~~e|
 d2 e2 fedc | dcBA BAGF |[M:2/2] GF F4 E2 | F4 c2 c2 | c4 d2 d2 | c6 c2 | c4 B2 B2 | G4 z2 EF | %12
w: fat- t'an- ti- ni ni ni|ni ni ni ni ni ni ni ni|ni ni ni ni-|go chi non|ve- de Ve-|ne- si-|a non l'ap-|pre- ne ne|
 G4 z2 EF | G2 F4 E2 | F8 | z8 | z8 | z8 | z8 | c2 c4 c2 | c2 c2 d4 | B8 | B2 A2 G4 | c2 A4 A2 | %24
w: ne ne ne|ne ne si-|a|||||Sa- ra fra|vù~~e fra mi|spas'|e pia- ser|che tal Za-|
 G2 G2 A4 | z2 c2 dd B2 | cc c2 dd e2 | f4 z4 | z4 B4- | B2 AB G2 G2 | A4 B4- | B2 AB G2 G2 | %32
w: mai non fù|Di- se- u de|no o di- se- u de-|si?|O|* be- ne- de- to|si O|* be- ne- de- to|
 F4 z4 | z2 F2 G2 F2 | d2 d2 c4 ||[M:3/4] A2 B2 c2 | d4 d2 | c6- | c4 A2 | c6- | c4 A2 | %41
w: si|Che so- lo|per un si|Cre- ao xe'!|mon- do|lar\-|* go|lon\-|* go|
 c>B cA Bc |[M:3/4] B>A BG AB | A>G AF GA | G>F GF GA | B>c dc BA | G3 F G2 | A2 G2 G2 || %48
w: to- no no no no no|no no no no no no|no no no no no no|no no no no no no|no no no no no no|no no no|no no no|
[M:2/2] A4 A4 | z2 c4 c2 | c2 c4 d2 | %51
w: non- do|Dun- que|con sto bel|
[Q:1/4=128] e2[Q:1/4=125] z[Q:1/4=123] c[Q:1/4=122] B[Q:1/4=120]A[Q:1/4=117] G2- | %52
w: si la fi- ni- re\-|
[Q:1/4=114] G2[Q:1/4=111] G2[Q:1/4=110] !fermata!A4 |] %53
w: * mo qui.|
V:2
 z4 z2 F2 | A8 | A4 z2 B2 | A6 G2 | A2 B2 cBAG | AGFE FEDC |[M:2/2] DCB,A, B,4 | C4 A2 A2 | %8
w: Pro-|ver-|bio, Pro-|ver- bio~~e|fat- t'an- ti- ni ni ni|ni ni ni ni ni ni ni ni|ni ni ni ni ni-|go chi non|
 A4 B2 B2 | A6 A2 | A4 F2 F2 | E2 EF G4 | z2 EF G4 | z2 EF G2 G2 | A8 | c2 cc B2 G2 | A2 B2 c2 A2 | %17
w: ve- de Ve-|ne- si-|a non l'ap-|pre- ne ne ne|ne ne ne|ne ne ne si-|a|Do- ne se vù vo-|lè ve- gnir con|
 B2 c2 A2 B2 | c4 z4 | A2 A4 A2 | A2 A2 B4 | G8 | G2 F2 E4 | G2 F4 F2 | D2 E2 F4 | z2 A2 GG G2 | %26
w: mi e mi con|vù|Sa- ra fra|vù~~e fra mi|spas'|e pia- ser|che tal Za-|mai non fù|Di- se- u de|
 FF F2 BB B2 | A4 z4 | z4 G4- | G2 FF E2 E2 | F4 G4- | G2 FF !courtesy!=E2 E2 | F2 F2 G4 | %33
w: no o di- se- u de-|si?|O|* be- ne- de- to|si O|* be- ne- de- to|si Che so-|
 F2 B4 A2 | G4 z4 ||[M:3/4] F2 G2 A2 | B4 B2 | A6- | A4 F2 | A6- | A4 F2 | A>G AF GA | %42
w: lo per un|si|Cre- ao xe'!|mon- do|lar\-|* go|lon\-|* go|to- no no no no no|
[M:3/4] G>F G_E FG | F>E FD EF | E>D ED EF | G>A BA GF | E3 D E2 | F2 D2 E2 ||[M:2/2] F4 F4 | %49
w: no no no no no no|no no no no no no|no no no no no no|no no no no no no|no no no|no no no|non- do|
 z2 A4 A2 | c2 B4 B2 | c2 z A GF D2- | D2 E2 !fermata!F4 |] %53
w: Dun- que|con sto bel|si la fi- ni- re\-|* mo qui.|
V:3
 z4 z2 F,2 | F8 | F4 z2 B,2 | F6 E2 | F2 G2 AGFE | FEDC DCB,A, |[M:2/2] B,A,G,F, G,4 | F,4 F2 F2 | %8
w: Pro-|ver-|bio, Pro-|ver- bio~~e|fat- t'an- ti- ni ni ni|ni ni ni ni ni ni ni ni|ni ni ni ni ni-|go chi non|
 F4 B,2 B,2 | F6 F2 | F4 B,2 B,2 | C8 | C8 | C6 C2 | F,8 | C2 CC D2 E2 | F2 D2 E2 F2 | %17
w: ve- de Ve-|ne- si-|a non l'ap-|pre-|ne|ne si-|a|Do- ne se vù vo-|lè ve- gnir con|
 G2 E2 F2 D2 | C4 z4 | F2 F4 F2 | F2 F2 B,4 | E8 | E2 F2 C4 | C2 D4 A,2 | B,2 C2 F,4 | %25
w: mi e mi con|vù|Sa- ra fra|vù~~e fra mi|spas'|e pia- ser|che tal Za-|mai non fù|
 z2 F2 BB B2 | AA A2 GG G2 | F4 z4 | z4 _E4- | E2 FB, C2 C2 | F,4 _E4- | E2 FB, C2 C2 | F,4 z2 C2 | %33
w: Di- se- u de|no o di- se- u de-|si?|O|* be- ne- de- to|si O|* be- ne- de- to|si Che|
 D4 C2 F2- | F2 F2 E4 ||[M:3/4] D2 G2 F2 | B,4 B,2 | F6- | F4 F,2 | F6- | F4 F,2 | F6 | %42
w: so- lo per|* un si|Cre- ao xe'!|mon- do|lar\-|* go|lon\-|* go,|lar-|
[M:3/4] _E6 | D6 | C6 | B,3 A, B,2 | C3 B, C2 | A,2 B,2 C2 ||[M:2/2] F,4 F,4 | z2 F4 F2 | %50
w: go|lon-|go|to- no no|no no no|no no no|non- do|Dun- que|
 A2 G4 G2 | C2 z F, G,A, B,2- | B,2 C2 !fermata!F,4 |] %53
w: con sto bel|si la fi- ni- re\-|* mo qui.|

